X: 22
T: Out On The Ocean
Z: Connor Hickey
S: https://thesession.org/tunes/108#setting46009
R: jig
M: 6/8
L: 1/8
K: Gmaj
d|:d>BB BAG|BdBA2B|GEEG2A|GBA GED|
d>BB BAG|BdBA2B|G>EE GAB|AGEG2d:|
|:e>fe edB|efe edB|d>ed dBA|Bge dBA|
G2AB2d|g2e dBA|G>EE GAB|1 AGEG2d:|2 AGEG2||

